X:411
T:French tune
C:anon.
O:France
Z:Transcribed by Frank Nordberg - http://www.musicaviva.com
F:http://abc.musicaviva.com/tunes/france/french-tune.abc
M:2/4
L:1/8
K:Am
E|"Am"(AB)cd|"Am"e3e|"Dm"(de)fd|"Am"e3e|
"Dm"(de)fd|"Am"(ef/e/) dc|"E7"(B7/2A/)|"Am"A3E|
"Am"(AB)cd|"Am"e3"A7"e|"Dm"(de)fd|"Am"e3"A7"e|
"Dm"(de)fd|"Am"(ef/e/) dc|"E7"(B7/2A/)|"Am"A3|]
W:
W:
W:  From Musica Viva - http://www.musicaviva.com
W:  the Internet center for free sheet music downloads.
